static/images/error.svg

<svg xmlns="http://www.w3.org/2000/svg" width="200" height="200" viewBox="0, 0, 200, 200"><path d="M7.5 71.874H100v20.929H7.5V71.874zm0 35.323H100v20.929H7.5v-20.929zM166 175.578h-15.078q-11.953-18.047-18.203-37.5t-6.25-37.656q0-22.578 7.734-42.734 6.719-17.5 17.031-32.266h15q-10.703 23.672-14.726 40.273-4.024 16.602-4.024 35.196 0 12.812 2.383 26.25 2.383 13.437 6.524 25.547 2.734 7.968 9.609 22.89z" fill="#E61B5A"/><path d="M166 175.578h-15.078q-11.953-18.047-18.203-37.5t-6.25-37.656q0-22.578 7.734-42.734 6.719-17.5 17.031-32.266h15q-10.703 23.672-14.726 40.273-4.024 16.602-4.024 35.196 0 12.812 2.383 26.25 2.383 13.437 6.524 25.547 2.734 7.968 9.609 22.89z" stroke="#E61B5A" fill="none"/></svg>

<?xml version="1.0" encoding="UTF-8"?>
<!DOCTYPE svg PUBLIC "-//W3C//DTD SVG 1.1//EN" "http://www.w3.org/Graphics/SVG/1.1/DTD/svg11.dtd">
<svg version="1.1" xmlns="http://www.w3.org/2000/svg" xmlns:xlink="http://www.w3.org/1999/xlink" x="0" y="0" width="200" height="200" viewBox="0, 0, 200, 200">
  <g id="Layer_1">
    <path d="M7.5,71.874 L100,71.874 L100,92.803 L7.5,92.803 L7.5,71.874 z" fill="#E61B5A"/>
    <path d="M7.5,107.197 L100,107.197 L100,128.126 L7.5,128.126 L7.5,107.197 z" fill="#E61B5A"/>
    <g>
      <path d="M166,175.578 L150.922,175.578 Q138.969,157.531 132.719,138.078 Q126.469,118.625 126.469,100.422 Q126.469,77.844 134.203,57.688 Q140.922,40.188 151.234,25.422 L166.234,25.422 Q155.531,49.094 151.508,65.695 Q147.484,82.297 147.484,100.891 Q147.484,113.703 149.867,127.141 Q152.25,140.578 156.391,152.688 Q159.125,160.656 166,175.578 z" fill="#E61B5A"/>
      <path d="M166,175.578 L150.922,175.578 Q138.969,157.531 132.719,138.078 Q126.469,118.625 126.469,100.422 Q126.469,77.844 134.203,57.688 Q140.922,40.188 151.234,25.422 L166.234,25.422 Q155.531,49.094 151.508,65.695 Q147.484,82.297 147.484,100.891 Q147.484,113.703 149.867,127.141 Q152.25,140.578 156.391,152.688 Q159.125,160.656 166,175.578 z" fill-opacity="0" stroke="#E61B5A" stroke-width="1"/>
    </g>
  </g>
</svg>
